!!!!SEGMENT: pl-wumfc--n57158--001_krolikiewicz-napoleon--polonez.krn
!!!cenid: 18xx:4118
!!!COM: Królikiewicz, Napoleon
!!!COM-rismID: pe50050290
!!!CDT:
!!!CNT: Polish
!!!OTL: Polonez
!!!PDT:
!!!AGN:
!!!YEC: Copyright 2022 Narodowy Instytut Fryderyka Chopina (https://polishscores.org)
!!!YEM: License CC-BY-4.0 (https://creativecommons.org/licenses/by/4.0)
!!!SMS-siglum: PL-Wumfc
!!!SMS-shelfmark: N57158
!!!SMS-shelfwork: 001 W
!!!SMS-variant:
!!!SMS-altvar:
!!!NIFC-rismSourceID: 1001178020
!!!NIFC-rismChildID: 1001178020
!!!NIFC-islandoraID: pl-wumfc:8167
!!!URL-pdf-islandora: https://repozytorium.nifc.pl/islandora/object/pl-wumfc%3A8167/datastream/PDF/view
!!!URL-scan: https://polish.musicsources.pl/pl/lokalizacje/galeria/druki-muzyczne/12605/1 @EN{Scan on Polish Music Sources Website} @PL{Skany w portalu Dziedzictwo Muzyki Polskiej w otwartym dostępie}
!!!IIIF:
!!!ONB-nifc: UWAGA: w zbiorze 1. Polonez, 2. Mazur, 3. Walc
!!!AIN: 1 piano
!!!key: C
**kern	**kern	**dynam
*part1	*part1	*
*staff2	*staff1	*
*I"Polonez.	*I"Polonez.	*
*>[A,A,B,B,C,C,D,D,E,E,D]	*>[A,A,B,B,C,C,D,D,E,E,D]	*
*>A	*>A	*
*Ipiano	*Ipiano	*
*ICklav	*ICklav	*
*clefF4	*clefG2	*
*k[]	*k[]	*
*C:	*C:	*
*M3/4	*M3/4	*
!!LO:TX:t=P:problem:brak oznaczenia powrotu do części początkowej po trio
8r	8g/	.
=1	=1	=1
4C: 4GG: 4EE: 4CC:/	4.cc 4.g 4.e\	f
4r	.	.
.	8cc 8g 8e\	.
!	!LO:N:vis=4.	!
4G 4GG\	4b 4g 4f\	.
=2	=2	=2
4G: 4D: 4BB: 4GG:\	4.dd 4.g 4.f\	.
4r	.	.
.	8dd 8g 8f\	.
4c 4C\	4cc 4g 4e\	.
=3	=3	=3
4c: 4G: 4E: 4C:\	4.gg 4.ee 4.cc\	.
4r	.	.
.	8gg 8ee 8cc\	.
4f 4c 4F\	4aa 4ff 4cc\	.
=4	=4	=4
.	8qaa/	.
8r	8gg\L	.
8GL 8GG\	8b 8g 8f\	.
8G 8GG\	8b 8g 8f\	.
8G 8GG\	8b 8g 8f\	.
8G 8GG\	8b 8g 8f\	.
8GJ 8GG\	8bJ 8g 8f\	.
=5	=5	=5
4C 4CC/	4cc 4g 4e\	.
8r	8r	.
=6:|!	=6:|!	=6:|!
*>B	*>B	*
!	!LO:TX:t=P:problem:mixed beam	!
8cL 8C\	8g/L	fp
!	!LO:N:vis=16	!
8e 8c 8G\	8ee\	.
!	!LO:N:vis=16	!
8e 8c 8G\	8dd\	.
8e 8c 8G\	8cc\J	.
8e 8c 8G\	8r	.
8eJ 8c 8G\	8r	.
!!LO:LB:g=original
=7	=7	=7
*rep	*	*
8cL 8C\	(8gs$SS/L	<
8e 8c 8G\	16a/L	.
.	16b/J	.
8e 8c 8G\	8cc/	.
8e 8c 8G\	8dd/	.
8e 8c 8G\	8ee/	.
8eJ 8c 8G\	8cc/J)	[[
*Xrep	*	*
=8	=8	=8
!	!LO:TX:t=P:problem:mixed beam	!
8GL 8GG\	8g/L	.
8f 8d 8B 8G\	16ff\L	.
.	16ee\J	.
8f 8d 8B 8G\	8dd\J	.
8f 8d 8B 8G\	8r	.
8f 8d 8B 8G\	4r	.
8fJ 8d 8B 8G\	.	.
=9	=9	=9
*rep	*	*
8GL 8GG\	(8gs$SS/L	<
*	*Xtuplet	*
8f 8d 8B 8G\	24a/L	.
.	24b/	.
.	24cc/J	.
8f 8d 8B 8G\	8dd/	.
8f 8d 8B 8G\	8ee/	.
8f 8d 8B 8G\	8.ff/	.
8fJ 8d 8B 8G\	.	.
.	16dd/Jk)	[[
*Xrep	*	*
=10	=10	=10
4c 4C\	8eeL 8cc\	.
.	8ggJ 8ee\	.
!	!LO:N:vis=8	!
4g 4e 4c\	4ggs$SS 4ee\	.
*	*tuplet	*
!	!LO:TUP:a:problem:klamra łukowa	!
!	!LO:N:vis=24	!
4a 4f 4c\	12aaL 12ff\	.
!	!LO:N:vis=24	!
.	12bb 12gg\	.
!	!LO:N:vis=24	!
.	12cccJ 12aa\	.
=11	=11	=11
*rep	*rep	*
4c 4C\	8eeL 8cc\	.
.	8ggJ 8ee\	.
!	!LO:N:vis=8	!
4g 4e 4c\	4gg 4ee\	.
!	!LO:TUP:a:problem:klamra łukowa	!
!	!LO:N:vis=24	!
4a 4f 4c\	12aaL 12ff\	.
!	!LO:N:vis=24	!
.	12bb 12gg\	.
!	!LO:N:vis=24	!
.	12cccJ 12aa\	.
*Xrep	*Xrep	*
=12	=12	=12
4c 4C\	(16gg\LL	.
.	16ee\	.
.	16eee\	.
.	16ddd\JJ)	.
!!LO:LB:g=original
4e 4c 4G\	(16ccc\LL	.
.	16bb\	.
.	16aa\	.
.	16gg\JJ	.
4e 4c 4G\	16ff\LL	.
.	16ee\	.
.	16dd\	.
.	16cc\JJ)	.
=13	=13	=13
4G 4AA\	(16gg\LL	.
.	16ff\	.
.	16dd\	.
.	16b\JJ)	.
4f 4d 4B 4G\	4dd\	.
4e 4c 4G\	4cc\	.
=14:|!|:	=14:|!|:	=14:|!|:
*>C	*>C	*
4G 4GG\	8ddL 8b\	ff
.	8dds$SS 8b\	.
4B 4G 4D\	8gg\	.
.	8ff#X\	.
4B 4G 4D\	8ee\	.
.	8dd\J	.
=15	=15	=15
.	8qdd/	.
4D 4DD/	4dd\	.
!LO:N:vis=8	!	!
4c 4A 4F#X 4D\	8cc#X\L	.
.	8ccn\J	.
4c 4A 4F# 4D\	4r	.
=16	=16	=16
!	!LO:N:vis=32	!
!	!LO:TUP:b:problem:klamra łukowa	!
4D 4DD/	(24d/LL	.
!	!LO:N:vis=32	!
.	24e/	.
!	!LO:N:vis=32	!
.	24d/	.
!	!LO:N:vis=32	!
.	24c#X/	.
!	!LO:N:vis=32	!
.	24d/	.
!	!LO:TX:t=P:problem:łamenie systemu	!
!	!LO:N:vis=32	!
.	24e-X/JJ)	.
!!LO:LB:g=original
!	!LO:N:vis=32	!
4c 4A 4F# 4D\	(24en/LL	.
!	!LO:N:vis=32	!
.	24f#X/	.
!	!LO:N:vis=32	!
.	24f#/	.
!	!LO:N:vis=32	!
.	24g/	.
!	!LO:N:vis=32	!
.	24a-X/	.
!	!LO:N:vis=32	!
.	24an/JJ	.
!	!LO:N:vis=32	!
4c 4A 4F# 4D\	24b-X/LL	.
!	!LO:N:vis=32	!
.	24bn/	.
!	!LO:N:vis=32	!
.	24cc/	.
!	!LO:N:vis=32	!
.	24a/	.
!	!LO:N:vis=32	!
.	24dd/	.
!	!LO:N:vis=32	!
.	24cc/JJ)	.
=17	=17	=17
4G-X 4GG-X\	4b-X\	.
8B 8G- 8D\	16bn\LL	.
.	16b\JJ	.
8E\L	8e/L	>
8F\	8f/	.
!LO:SIC:v:o=8G#X\J	!	!
8F#X\J	8f#X/J	]]
!!LO:PB:g=original
=18:|!|:	=18:|!|:	=18:|!|:
*>D	*>D	*
!	!LO:TX:i:a:t=Trio.	!
4G\	4r	.
=19	=19	=19
8Gs$SS\L	8eeL 8cc\	.
!LO:TX:a:i:t=dolce	!	!
16A\L	8g\	.
16B\J	.	.
8c\	8ee 8cc\	.
8d\	8g\	.
8e\	8ee 8cc\	.
8c\J	8g\J	.
=20	=20	=20
8d\L	8ffL 8dd 8b\	.
8ds$SS\J	8g\	.
4.f\	8ff 8dd 8b\	.
.	8g\	.
.	8ff 8dd 8b\	.
8B\	8g\J	.
=21	=21	=21
8c\L	8eeL 8cc\	.
8c\J	8g\	.
*Xtuplet	*	*
24r	8ee 8cc\	.
24c/LL	.	.
24d/JJ	.	.
8c\	8g\	.
8B\L	8ee 8cc\	.
8c\J	8g\J	.
=22	=22	=22
8e\L	8ffL 8dd 8b\	.
8e-X\	8g\	.
8d\J	8ff 8dd 8b\	.
4r	8g\	.
.	8ff 8dd 8b\	.
8r	8g\J	.
=23	=23	=23
8Gs$SS\L	8eeL 8cc\	.
16A\L	8g\	.
16B\J	.	.
8c\	8ee 8cc\	.
8d\	8g\	.
8e\	8ee 8cc\	.
8c\J	8g\J	.
=24	=24	=24
4.A\	8ffL 8cc\	.
.	8aa\	.
.	8ff 8cc\	.
16c\LL	8aa\	.
16gJJ 16e\	.	.
8a\L	8ff 8cc\	.
8a\J	8aa\J	.
!!LO:LB:g=original
=25	=25	=25
!LO:N:vis=16	!	!
8a\LL	8eeL 8cc\	.
!LO:N:vis=16	!	!
8g\	8gg\	.
!LO:N:vis=16	!	!
8g\JJ	8ee 8cc\	.
16e\LL	8gg\	.
16c\JJ	.	.
16g\LL	8ff 8dd\	.
16f\	.	.
16d\	8gg\J	.
16B\JJ	.	.
=26	=26	=26
16c\LL	4gg 4ee 4cc\	.
16e\	.	.
16d\	.	.
16B\JJ	.	.
!LO:N:vis=4	!	!
4.d\	4.ggs$SS 4.ff 4.dd\	.
8d\	8gg 8ee 8cc\	.
=27:|!|:	=27:|!|:	=27:|!|:
*>E	*>E	*
!LO:TX:t=P:problem:mixed beam	!	!
8GGL 8DD 8BBB 8GGG/	8f: 8d: 8B: 8G:/	ff
8f 8d 8B 8G\	8.fff\L	.
8f 8d 8B\	.	.
.	16eee\Jk	.
8f 8d 8B\	16ddd\LL	.
.	16ccc\JJ	.
8f 8d 8B\	16bb\LL	.
.	16aa\	.
8fJ 8d 8B\	16gg\	.
.	16ff\JJ	.
=28	=28	=28
8cL 8C\	(16ee\LL	.
.	16ff\	.
8eJ 8c 8G\	16ff#X\	.
.	16gg\JJ)	.
8eL 8c 8G\	(16aa\LL	.
.	16bb\	.
8eJ 8c 8G\	16ccc\	.
.	16ddd\JJ	.
8eL 8c 8G\	16fff#X\LL	.
.	16ggg\	.
8eJ 8c 8G\	16eee\	.
.	16ccc\JJ)	.
!!LO:LB:g=original
=29	=29	=29
!LO:TX:t=P:problem:mixed beam	!	!
8GGL 8DD 8BBB 8GGG/	8f: 8d: 8B: 8G:/	.
8f 8d 8B 8G\	8.fff\L	.
8f 8d 8B 8G\	.	.
.	16eee\Jk	.
8f 8d 8B 8G\	16ddd\LL	.
.	16ccc\JJ	.
8f 8d 8B 8G\	16bb\LL	.
.	16aa\	.
8fJ 8d 8B 8G\	16gg\	.
.	16ff\JJ	.
=30	=30	=30
4c 4C\	16ee\LL	.
.	16ff\	.
.	16ff#X\	.
.	16gg\JJ	.
4e 4c 4G\	16aa\LL	.
.	16gg\	.
.	16ff#X\	.
.	16gg\JJ	.
!	!LO:TX:i:b:t=Trio DC&colon;	!
4f 4d 4B 4G\	4dd\	.
=:|!	=:|!	=:|!
*-	*-	*-
!!!system-decoration: {(p1)}
!!!RDF**kern: > = above
!!!RDF**kern: < = below
!!!ENC: Filip Voros
!!!END: 2022-08-26
!!!ENC: Kamil Watkowski
!!!END: 2022-09-30
